img/icon-fitness-bracelet.svg

<svg width="107" height="65" fill="none" xmlns="http://www.w3.org/2000/svg"><g clip-path="url(#clip0)" fill="#363636"><path d="M98.967 4.07397c.752 1.441 1.209 3.08001 1.209 4.818V29.994c0 4.616-3.092 8.527-7.246 9.9-1.325 3.987-3.778 7.854-8.051 10.432-8.676 5.231-31.124 4.837-31.198 4.837-.078 0-22.513.395-31.189-4.837-4.216-2.545-6.708-6.347-8.042-10.279-4.418-1.209-7.756-5.251-7.756-10.053V8.89297c0-1.688.427-3.282 1.139-4.693C4.17 5.10897 0 6.91797 0 10.434v29.983C0 50.668 11.839 64.85 53.657 64.85c41.82 0 53.657-14.182 53.657-24.433V10.434c-.001-3.68403-4.576-5.49403-8.347-6.36003z"/><path d="M20.561 38.459h65.523c5.564 0 10.074-4.513 10.074-10.077V9.93499c0-5.563-4.51-10.075-10.074-10.075H20.561c-5.564 0-10.075 4.511-10.075 10.075V28.382c0 5.564 4.511 10.077 10.075 10.077zM83.695 9.46799c.867 0 1.569.70301 1.569 1.57001 0 .866-.702 1.569-1.569 1.569s-1.568-.703-1.568-1.569c0-.868.701-1.57001 1.568-1.57001zm0 4.03901c.867 0 1.569.703 1.569 1.568 0 .867-.702 1.569-1.569 1.569s-1.568-.702-1.568-1.569c0-.865.701-1.568 1.568-1.568zm0 4.039c.867 0 1.569.702 1.569 1.569 0 .866-.702 1.569-1.569 1.569s-1.568-.703-1.568-1.569c0-.867.701-1.569 1.568-1.569zm0 3.827c.867 0 1.569.704 1.569 1.569 0 .867-.702 1.568-1.569 1.568s-1.568-.701-1.568-1.568c0-.866.701-1.569 1.568-1.569zm0 4.039c.867 0 1.569.702 1.569 1.569 0 .865-.702 1.568-1.569 1.568s-1.568-.704-1.568-1.568c0-.867.701-1.569 1.568-1.569zM79.656 9.46799c.867 0 1.568.70301 1.568 1.57001 0 .866-.701 1.569-1.568 1.569-.865 0-1.568-.703-1.568-1.569 0-.868.703-1.57001 1.568-1.57001zm0 15.94401c.867 0 1.568.702 1.568 1.569 0 .865-.701 1.568-1.568 1.568-.865 0-1.568-.704-1.568-1.568 0-.867.703-1.569 1.568-1.569zM75.619 9.46799c.865 0 1.568.70301 1.568 1.57001 0 .866-.703 1.569-1.568 1.569-.867 0-1.569-.703-1.569-1.569 0-.868.702-1.57001 1.569-1.57001zm0 4.03901c.865 0 1.568.703 1.568 1.568 0 .867-.703 1.569-1.568 1.569-.867 0-1.569-.702-1.569-1.569 0-.865.702-1.568 1.569-1.568zm0 4.039c.865 0 1.568.702 1.568 1.569 0 .866-.703 1.569-1.568 1.569-.867 0-1.569-.703-1.569-1.569 0-.867.702-1.569 1.569-1.569zm0 3.827c.865 0 1.568.704 1.568 1.569 0 .867-.703 1.568-1.568 1.568-.867 0-1.569-.701-1.569-1.568 0-.866.702-1.569 1.569-1.569zm0 4.039c.865 0 1.568.702 1.568 1.569 0 .865-.703 1.568-1.568 1.568-.867 0-1.569-.704-1.569-1.568 0-.867.702-1.569 1.569-1.569zM67.965 9.46799c.867 0 1.568.70301 1.568 1.57001 0 .866-.701 1.569-1.568 1.569-.867 0-1.568-.703-1.568-1.569-.001-.868.703-1.57001 1.568-1.57001zm0 8.07801c.867 0 1.568.702 1.568 1.569 0 .866-.701 1.569-1.568 1.569-.867 0-1.568-.703-1.568-1.569-.001-.867.703-1.569 1.568-1.569zm0 3.881c.867 0 1.568.701 1.568 1.568 0 .865-.701 1.569-1.568 1.569-.867 0-1.568-.704-1.568-1.569-.001-.867.703-1.568 1.568-1.568zm0 3.985c.867 0 1.568.702 1.568 1.569 0 .865-.701 1.568-1.568 1.568-.867 0-1.568-.704-1.568-1.568-.001-.867.703-1.569 1.568-1.569zM63.926 9.46799c.867 0 1.57.70301 1.57 1.57001 0 .866-.703 1.569-1.57 1.569-.865 0-1.569-.703-1.569-1.569-.001-.868.704-1.57001 1.569-1.57001zm0 8.07801c.867 0 1.57.702 1.57 1.569 0 .866-.703 1.569-1.57 1.569-.865 0-1.569-.703-1.569-1.569-.001-.867.704-1.569 1.569-1.569zm0 7.866c.867 0 1.57.702 1.57 1.569 0 .865-.703 1.568-1.57 1.568-.865 0-1.569-.704-1.569-1.568-.001-.867.704-1.569 1.569-1.569zM59.888 9.46799c.865 0 1.569.70301 1.569 1.57001 0 .866-.704 1.569-1.569 1.569-.867 0-1.568-.703-1.568-1.569-.001-.868.701-1.57001 1.568-1.57001zm0 4.03901c.865 0 1.569.703 1.569 1.568 0 .867-.704 1.569-1.569 1.569-.867 0-1.568-.702-1.568-1.569-.001-.865.701-1.568 1.568-1.568zm0 4.039c.865 0 1.569.702 1.569 1.569 0 .866-.704 1.569-1.569 1.569-.867 0-1.568-.703-1.568-1.569-.001-.867.701-1.569 1.568-1.569zm0 7.866c.865 0 1.569.702 1.569 1.569 0 .865-.704 1.568-1.569 1.568-.867 0-1.568-.704-1.568-1.568-.001-.867.701-1.569 1.568-1.569zm-8.29-15.94401c.867 0 1.569.70301 1.569 1.57001 0 .866-.702 1.569-1.569 1.569s-1.568-.703-1.568-1.569c-.001-.868.701-1.57001 1.568-1.57001zm0 4.03901c.867 0 1.569.703 1.569 1.568 0 .867-.702 1.569-1.569 1.569s-1.568-.702-1.568-1.569c-.001-.865.701-1.568 1.568-1.568zm0 4.039c.867 0 1.569.702 1.569 1.569 0 .866-.702 1.569-1.569 1.569s-1.568-.703-1.568-1.569c-.001-.867.701-1.569 1.568-1.569zm0 3.881c.867 0 1.569.701 1.569 1.568 0 .865-.702 1.569-1.569 1.569s-1.568-.704-1.568-1.569c-.001-.867.701-1.568 1.568-1.568zm0 3.985c.867 0 1.569.702 1.569 1.569 0 .865-.702 1.568-1.569 1.568s-1.568-.704-1.568-1.568c-.001-.867.701-1.569 1.568-1.569zm-4.039-11.905c.867 0 1.568.703 1.568 1.568 0 .867-.701 1.569-1.568 1.569-.867 0-1.569-.702-1.569-1.569 0-.865.701-1.568 1.569-1.568zm-8.502-.212c.865 0 1.569.703 1.569 1.568 0 .867-.704 1.569-1.569 1.569-.867 0-1.571-.703-1.571-1.569 0-.865.703-1.568 1.571-1.568zm0 4.038c.865 0 1.569.703 1.569 1.57 0 .866-.704 1.57-1.569 1.57-.867 0-1.571-.704-1.571-1.57 0-.867.703-1.57 1.571-1.57zm-4.039-8.07801c.865 0 1.568.703 1.568 1.57001 0 .866-.704 1.568-1.568 1.568-.867 0-1.569-.703-1.569-1.568 0-.86701.701-1.57001 1.569-1.57001zm0 4.04001c.865 0 1.568.703 1.568 1.568 0 .867-.704 1.569-1.568 1.569-.867 0-1.569-.703-1.569-1.569 0-.865.701-1.568 1.569-1.568zm0 4.038c.865 0 1.568.703 1.568 1.57 0 .866-.704 1.57-1.568 1.57-.867 0-1.569-.704-1.569-1.57 0-.867.701-1.57 1.569-1.57zm0 4.04c.865 0 1.568.704 1.568 1.569 0 .867-.704 1.568-1.568 1.568-.867 0-1.569-.701-1.569-1.568 0-.866.701-1.569 1.569-1.569zm-4.254-8.078c.867 0 1.569.703 1.569 1.568 0 .867-.702 1.569-1.569 1.569s-1.568-.703-1.568-1.569c0-.865.701-1.568 1.568-1.568zm0 4.038c.867 0 1.569.703 1.569 1.57 0 .866-.702 1.57-1.569 1.57s-1.568-.704-1.568-1.57c0-.867.701-1.57 1.568-1.57zm0 4.04c.867 0 1.569.704 1.569 1.569 0 .867-.702 1.568-1.569 1.568s-1.568-.701-1.568-1.568c0-.866.701-1.569 1.568-1.569zm0 4.039c.867 0 1.569.702 1.569 1.569 0 .865-.702 1.568-1.569 1.568s-1.568-.704-1.568-1.568c0-.867.701-1.569 1.568-1.569zM26.3 9.25499c.867 0 1.571.703 1.571 1.57001 0 .866-.704 1.568-1.571 1.568-.865 0-1.569-.703-1.569-1.568 0-.86701.704-1.57001 1.569-1.57001zm0 4.04001c.867 0 1.571.703 1.571 1.568 0 .867-.704 1.569-1.571 1.569-.865 0-1.569-.703-1.569-1.569 0-.865.704-1.568 1.569-1.568zm0 4.038c.867 0 1.571.703 1.571 1.57 0 .866-.704 1.57-1.571 1.57-.865 0-1.569-.704-1.569-1.57 0-.867.704-1.57 1.569-1.57zm0 4.04c.867 0 1.571.704 1.571 1.569 0 .867-.704 1.568-1.571 1.568-.865 0-1.569-.701-1.569-1.568 0-.866.704-1.569 1.569-1.569zm-4.037-8.078c.865 0 1.569.703 1.569 1.568 0 .867-.704 1.569-1.569 1.569-.867 0-1.569-.703-1.569-1.569 0-.865.702-1.568 1.569-1.568zm0 4.038c.865 0 1.569.703 1.569 1.57 0 .866-.704 1.57-1.569 1.57-.867 0-1.569-.704-1.569-1.57 0-.867.702-1.57 1.569-1.57z"/></g><defs><clipPath id="clip0"><path fill="#fff" d="M0 0h107v65H0z"/></clipPath></defs></svg>

<svg width="107" height="65" viewBox="0 0 107 65" fill="none" xmlns="http://www.w3.org/2000/svg">
<g clip-path="url(#clip0)">
<path d="M98.967 4.07397C99.719 5.51497 100.176 7.15398 100.176 8.89197V29.994C100.176 34.61 97.084 38.521 92.93 39.894C91.605 43.881 89.152 47.748 84.879 50.326C76.203 55.557 53.755 55.163 53.681 55.163C53.603 55.163 31.168 55.558 22.492 50.326C18.276 47.781 15.784 43.979 14.45 40.047C10.032 38.838 6.694 34.796 6.694 29.994V8.89297C6.694 7.20497 7.121 5.61097 7.833 4.19997C4.17 5.10897 0 6.91797 0 10.434C0 16.677 0 36.121 0 40.417C0 50.668 11.839 64.85 53.657 64.85C95.477 64.85 107.314 50.668 107.314 40.417C107.314 36.121 107.314 16.677 107.314 10.434C107.313 6.74997 102.738 4.93997 98.967 4.07397Z" fill="#363636"/>
<path d="M20.561 38.459H86.084C91.648 38.459 96.158 33.946 96.158 28.382V9.93499C96.158 4.37199 91.648 -0.140015 86.084 -0.140015H20.561C14.997 -0.140015 10.486 4.37099 10.486 9.93499V28.382C10.486 33.946 14.997 38.459 20.561 38.459ZM83.695 9.46799C84.562 9.46799 85.264 10.171 85.264 11.038C85.264 11.904 84.562 12.607 83.695 12.607C82.828 12.607 82.127 11.904 82.127 11.038C82.127 10.17 82.828 9.46799 83.695 9.46799ZM83.695 13.507C84.562 13.507 85.264 14.21 85.264 15.075C85.264 15.942 84.562 16.644 83.695 16.644C82.828 16.644 82.127 15.942 82.127 15.075C82.127 14.21 82.828 13.507 83.695 13.507ZM83.695 17.546C84.562 17.546 85.264 18.248 85.264 19.115C85.264 19.981 84.562 20.684 83.695 20.684C82.828 20.684 82.127 19.981 82.127 19.115C82.127 18.248 82.828 17.546 83.695 17.546ZM83.695 21.373C84.562 21.373 85.264 22.077 85.264 22.942C85.264 23.809 84.562 24.51 83.695 24.51C82.828 24.51 82.127 23.809 82.127 22.942C82.127 22.076 82.828 21.373 83.695 21.373ZM83.695 25.412C84.562 25.412 85.264 26.114 85.264 26.981C85.264 27.846 84.562 28.549 83.695 28.549C82.828 28.549 82.127 27.845 82.127 26.981C82.127 26.114 82.828 25.412 83.695 25.412ZM79.656 9.46799C80.523 9.46799 81.224 10.171 81.224 11.038C81.224 11.904 80.523 12.607 79.656 12.607C78.791 12.607 78.088 11.904 78.088 11.038C78.088 10.17 78.791 9.46799 79.656 9.46799ZM79.656 25.412C80.523 25.412 81.224 26.114 81.224 26.981C81.224 27.846 80.523 28.549 79.656 28.549C78.791 28.549 78.088 27.845 78.088 26.981C78.088 26.114 78.791 25.412 79.656 25.412ZM75.619 9.46799C76.484 9.46799 77.187 10.171 77.187 11.038C77.187 11.904 76.484 12.607 75.619 12.607C74.752 12.607 74.05 11.904 74.05 11.038C74.05 10.17 74.752 9.46799 75.619 9.46799ZM75.619 13.507C76.484 13.507 77.187 14.21 77.187 15.075C77.187 15.942 76.484 16.644 75.619 16.644C74.752 16.644 74.05 15.942 74.05 15.075C74.05 14.21 74.752 13.507 75.619 13.507ZM75.619 17.546C76.484 17.546 77.187 18.248 77.187 19.115C77.187 19.981 76.484 20.684 75.619 20.684C74.752 20.684 74.05 19.981 74.05 19.115C74.05 18.248 74.752 17.546 75.619 17.546ZM75.619 21.373C76.484 21.373 77.187 22.077 77.187 22.942C77.187 23.809 76.484 24.51 75.619 24.51C74.752 24.51 74.05 23.809 74.05 22.942C74.05 22.076 74.752 21.373 75.619 21.373ZM75.619 25.412C76.484 25.412 77.187 26.114 77.187 26.981C77.187 27.846 76.484 28.549 75.619 28.549C74.752 28.549 74.05 27.845 74.05 26.981C74.05 26.114 74.752 25.412 75.619 25.412ZM67.965 9.46799C68.832 9.46799 69.533 10.171 69.533 11.038C69.533 11.904 68.832 12.607 67.965 12.607C67.098 12.607 66.397 11.904 66.397 11.038C66.396 10.17 67.1 9.46799 67.965 9.46799ZM67.965 17.546C68.832 17.546 69.533 18.248 69.533 19.115C69.533 19.981 68.832 20.684 67.965 20.684C67.098 20.684 66.397 19.981 66.397 19.115C66.396 18.248 67.1 17.546 67.965 17.546ZM67.965 21.427C68.832 21.427 69.533 22.128 69.533 22.995C69.533 23.86 68.832 24.564 67.965 24.564C67.098 24.564 66.397 23.86 66.397 22.995C66.396 22.128 67.1 21.427 67.965 21.427ZM67.965 25.412C68.832 25.412 69.533 26.114 69.533 26.981C69.533 27.846 68.832 28.549 67.965 28.549C67.098 28.549 66.397 27.845 66.397 26.981C66.396 26.114 67.1 25.412 67.965 25.412ZM63.926 9.46799C64.793 9.46799 65.496 10.171 65.496 11.038C65.496 11.904 64.793 12.607 63.926 12.607C63.061 12.607 62.357 11.904 62.357 11.038C62.356 10.17 63.061 9.46799 63.926 9.46799ZM63.926 17.546C64.793 17.546 65.496 18.248 65.496 19.115C65.496 19.981 64.793 20.684 63.926 20.684C63.061 20.684 62.357 19.981 62.357 19.115C62.356 18.248 63.061 17.546 63.926 17.546ZM63.926 25.412C64.793 25.412 65.496 26.114 65.496 26.981C65.496 27.846 64.793 28.549 63.926 28.549C63.061 28.549 62.357 27.845 62.357 26.981C62.356 26.114 63.061 25.412 63.926 25.412ZM59.888 9.46799C60.753 9.46799 61.457 10.171 61.457 11.038C61.457 11.904 60.753 12.607 59.888 12.607C59.021 12.607 58.32 11.904 58.32 11.038C58.319 10.17 59.021 9.46799 59.888 9.46799ZM59.888 13.507C60.753 13.507 61.457 14.21 61.457 15.075C61.457 15.942 60.753 16.644 59.888 16.644C59.021 16.644 58.32 15.942 58.32 15.075C58.319 14.21 59.021 13.507 59.888 13.507ZM59.888 17.546C60.753 17.546 61.457 18.248 61.457 19.115C61.457 19.981 60.753 20.684 59.888 20.684C59.021 20.684 58.32 19.981 58.32 19.115C58.319 18.248 59.021 17.546 59.888 17.546ZM59.888 25.412C60.753 25.412 61.457 26.114 61.457 26.981C61.457 27.846 60.753 28.549 59.888 28.549C59.021 28.549 58.32 27.845 58.32 26.981C58.319 26.114 59.021 25.412 59.888 25.412ZM51.598 9.46799C52.465 9.46799 53.167 10.171 53.167 11.038C53.167 11.904 52.465 12.607 51.598 12.607C50.731 12.607 50.03 11.904 50.03 11.038C50.029 10.17 50.731 9.46799 51.598 9.46799ZM51.598 13.507C52.465 13.507 53.167 14.21 53.167 15.075C53.167 15.942 52.465 16.644 51.598 16.644C50.731 16.644 50.03 15.942 50.03 15.075C50.029 14.21 50.731 13.507 51.598 13.507ZM51.598 17.546C52.465 17.546 53.167 18.248 53.167 19.115C53.167 19.981 52.465 20.684 51.598 20.684C50.731 20.684 50.03 19.981 50.03 19.115C50.029 18.248 50.731 17.546 51.598 17.546ZM51.598 21.427C52.465 21.427 53.167 22.128 53.167 22.995C53.167 23.86 52.465 24.564 51.598 24.564C50.731 24.564 50.03 23.86 50.03 22.995C50.029 22.128 50.731 21.427 51.598 21.427ZM51.598 25.412C52.465 25.412 53.167 26.114 53.167 26.981C53.167 27.846 52.465 28.549 51.598 28.549C50.731 28.549 50.03 27.845 50.03 26.981C50.029 26.114 50.731 25.412 51.598 25.412ZM47.559 13.507C48.426 13.507 49.127 14.21 49.127 15.075C49.127 15.942 48.426 16.644 47.559 16.644C46.692 16.644 45.99 15.942 45.99 15.075C45.99 14.21 46.691 13.507 47.559 13.507ZM39.057 13.295C39.922 13.295 40.626 13.998 40.626 14.863C40.626 15.73 39.922 16.432 39.057 16.432C38.19 16.432 37.486 15.729 37.486 14.863C37.486 13.998 38.189 13.295 39.057 13.295ZM39.057 17.333C39.922 17.333 40.626 18.036 40.626 18.903C40.626 19.769 39.922 20.473 39.057 20.473C38.19 20.473 37.486 19.769 37.486 18.903C37.486 18.036 38.189 17.333 39.057 17.333ZM35.018 9.25499C35.883 9.25499 36.586 9.95799 36.586 10.825C36.586 11.691 35.882 12.393 35.018 12.393C34.151 12.393 33.449 11.69 33.449 10.825C33.449 9.95799 34.15 9.25499 35.018 9.25499ZM35.018 13.295C35.883 13.295 36.586 13.998 36.586 14.863C36.586 15.73 35.882 16.432 35.018 16.432C34.151 16.432 33.449 15.729 33.449 14.863C33.449 13.998 34.15 13.295 35.018 13.295ZM35.018 17.333C35.883 17.333 36.586 18.036 36.586 18.903C36.586 19.769 35.882 20.473 35.018 20.473C34.151 20.473 33.449 19.769 33.449 18.903C33.449 18.036 34.15 17.333 35.018 17.333ZM35.018 21.373C35.883 21.373 36.586 22.077 36.586 22.942C36.586 23.809 35.882 24.51 35.018 24.51C34.151 24.51 33.449 23.809 33.449 22.942C33.449 22.076 34.15 21.373 35.018 21.373ZM30.764 13.295C31.631 13.295 32.333 13.998 32.333 14.863C32.333 15.73 31.631 16.432 30.764 16.432C29.897 16.432 29.196 15.729 29.196 14.863C29.196 13.998 29.897 13.295 30.764 13.295ZM30.764 17.333C31.631 17.333 32.333 18.036 32.333 18.903C32.333 19.769 31.631 20.473 30.764 20.473C29.897 20.473 29.196 19.769 29.196 18.903C29.196 18.036 29.897 17.333 30.764 17.333ZM30.764 21.373C31.631 21.373 32.333 22.077 32.333 22.942C32.333 23.809 31.631 24.51 30.764 24.51C29.897 24.51 29.196 23.809 29.196 22.942C29.196 22.076 29.897 21.373 30.764 21.373ZM30.764 25.412C31.631 25.412 32.333 26.114 32.333 26.981C32.333 27.846 31.631 28.549 30.764 28.549C29.897 28.549 29.196 27.845 29.196 26.981C29.196 26.114 29.897 25.412 30.764 25.412ZM26.3 9.25499C27.167 9.25499 27.871 9.95799 27.871 10.825C27.871 11.691 27.167 12.393 26.3 12.393C25.435 12.393 24.731 11.69 24.731 10.825C24.731 9.95799 25.435 9.25499 26.3 9.25499ZM26.3 13.295C27.167 13.295 27.871 13.998 27.871 14.863C27.871 15.73 27.167 16.432 26.3 16.432C25.435 16.432 24.731 15.729 24.731 14.863C24.731 13.998 25.435 13.295 26.3 13.295ZM26.3 17.333C27.167 17.333 27.871 18.036 27.871 18.903C27.871 19.769 27.167 20.473 26.3 20.473C25.435 20.473 24.731 19.769 24.731 18.903C24.731 18.036 25.435 17.333 26.3 17.333ZM26.3 21.373C27.167 21.373 27.871 22.077 27.871 22.942C27.871 23.809 27.167 24.51 26.3 24.51C25.435 24.51 24.731 23.809 24.731 22.942C24.731 22.076 25.435 21.373 26.3 21.373ZM22.263 13.295C23.128 13.295 23.832 13.998 23.832 14.863C23.832 15.73 23.128 16.432 22.263 16.432C21.396 16.432 20.694 15.729 20.694 14.863C20.694 13.998 21.396 13.295 22.263 13.295ZM22.263 17.333C23.128 17.333 23.832 18.036 23.832 18.903C23.832 19.769 23.128 20.473 22.263 20.473C21.396 20.473 20.694 19.769 20.694 18.903C20.694 18.036 21.396 17.333 22.263 17.333Z" fill="#363636"/>
</g>
<defs>
<clipPath id="clip0">
<rect width="107" height="65" fill="white"/>
</clipPath>
</defs>
</svg>
